X: 40105
T: Tickle Her Leg With The Barley Straw
R: jig
M: 6/8
K: Bminor
|:F2B BAF|A3 AFE|F2B BAF|d2e f3|
F2B BAF|A3 ABc|d2f e2c|1 B3 B2A:|2 B3 Bde||
|:f2b baf|a3 afe|f2b baf|d2e f3|
f2b baf|e3 ABc|d2f e2c|1 B3 Bde:|2 B3 B2A||

